src/assets/badge-trusted.svg

<svg width="73" height="73" viewBox="0 0 73 73" fill="none" xmlns="http://www.w3.org/2000/svg">
<path d="M16.1338 63.1406H24.3452C25.1631 63.1406 25.7192 63.3696 26.3081 63.9585L32.1641 69.749C35.3374 72.8896 37.8564 72.8896 41.0298 69.749L46.8857 63.9585C47.4746 63.3696 48.0308 63.1406 48.8486 63.1406H57.0601C61.542 63.1406 63.374 61.3413 63.374 56.8267V48.6152C63.374 47.8301 63.603 47.2412 64.1592 46.6523L69.9824 40.7964C73.123 37.623 73.123 35.104 69.9824 31.9307L64.1592 26.1074C63.603 25.4858 63.374 24.9297 63.374 24.1445V15.9331C63.374 11.4185 61.542 9.58643 57.0601 9.58643H48.8486C48.0308 9.58643 47.4746 9.39014 46.8857 8.80127L41.0298 3.01074C37.8237 -0.195312 35.3374 -0.228027 32.1313 3.01074L26.3081 8.80127C25.752 9.35742 25.1631 9.58643 24.3452 9.58643H16.1338C11.6519 9.58643 9.81982 11.4185 9.81982 15.9331V24.1445C9.81982 24.9297 9.59082 25.4858 9.00195 26.1074L3.21143 31.9307C0.0708008 35.104 0.0708008 37.623 3.21143 40.7964L9.00195 46.6523C9.59082 47.2412 9.81982 47.8301 9.81982 48.6152V56.8267C9.81982 61.3086 11.6519 63.1406 16.1338 63.1406ZM16.1338 60.7197C13.0259 60.7197 12.2407 59.9346 12.2407 56.8267V47.6992C12.2407 46.8159 11.979 46.1616 11.3574 45.54L4.9126 39.1279C2.68799 36.9033 2.68799 35.8564 4.9126 33.6318L11.3574 27.187C11.979 26.5981 12.2407 25.9438 12.2407 25.0605V15.9331C12.2407 12.7598 12.9932 12.0073 16.1338 12.0073H25.2612C26.1445 12.0073 26.7988 11.7456 27.4204 11.124L33.8652 4.6792C36.0571 2.4873 37.104 2.4873 39.3286 4.6792L45.7734 11.124C46.395 11.7456 47.0493 12.0073 47.8999 12.0073H57.0601C60.168 12.0073 60.9531 12.7925 60.9531 15.9331V25.0605C60.9531 25.9438 61.2148 26.5981 61.8364 27.187L68.2812 33.6318C70.4731 35.8564 70.4731 36.9033 68.2812 39.1279L61.8364 45.54C61.2148 46.1616 60.9531 46.8159 60.9531 47.6992V56.8267C60.9531 59.9346 60.168 60.7197 57.0601 60.7197H47.8999C47.0493 60.7197 46.395 60.9814 45.7734 61.603L39.3286 68.0479C37.104 70.2725 36.0571 70.2725 33.8652 68.0479L27.4204 61.603C26.7988 60.9814 26.1445 60.7197 25.2612 60.7197H16.1338ZM33.1128 51.8867C33.6035 51.8867 33.9961 51.625 34.3232 51.2324L51.4658 24.6353C51.5967 24.3735 51.7603 24.0137 51.7603 23.752C51.7603 23.0977 51.1387 22.5742 50.5498 22.5742C50.1245 22.5742 49.7319 22.8359 49.4375 23.2612L33.0474 48.7788L24.0508 38.2119C23.7236 37.7866 23.3638 37.623 22.9058 37.623C22.2842 37.623 21.728 38.1465 21.728 38.8335C21.728 39.1934 21.8916 39.5205 22.1206 39.8477L31.8696 51.2324C32.2295 51.6904 32.5894 51.8867 33.1128 51.8867Z" fill="black"/>
</svg>

<svg xmlns="http://www.w3.org/2000/svg" width="73" height="73" fill="none"><path fill="#000" d="M16.134 63.14h8.211c.818 0 1.374.23 1.963.819l5.856 5.79c3.173 3.14 5.692 3.14 8.866 0l5.856-5.79c.589-.59 1.145-.818 1.963-.818h8.211c4.482 0 6.314-1.8 6.314-6.314v-8.212c0-.785.229-1.374.785-1.963l5.823-5.856c3.141-3.173 3.141-5.692 0-8.865l-5.823-5.824c-.556-.621-.785-1.177-.785-1.962v-8.212c0-4.514-1.832-6.347-6.314-6.347H48.85c-.818 0-1.374-.196-1.963-.785l-5.856-5.79c-3.206-3.206-5.693-3.239-8.899 0L26.308 8.8c-.556.556-1.145.785-1.963.785h-8.211c-4.482 0-6.314 1.832-6.314 6.347v8.212c0 .785-.23 1.34-.818 1.962l-5.79 5.824c-3.141 3.173-3.141 5.692 0 8.865l5.79 5.856c.589.59.818 1.178.818 1.963v8.212c0 4.482 1.832 6.314 6.314 6.314Zm0-2.42c-3.108 0-3.893-.785-3.893-3.893v-9.128c0-.883-.262-1.537-.884-2.159l-6.444-6.412c-2.225-2.225-2.225-3.272 0-5.496l6.444-6.445c.622-.589.884-1.243.884-2.127v-9.127c0-3.173.752-3.926 3.893-3.926h9.127c.884 0 1.538-.261 2.16-.883l6.444-6.445c2.192-2.192 3.239-2.192 5.464 0l6.444 6.445c.622.622 1.276.883 2.127.883h9.16c3.108 0 3.893.786 3.893 3.926v9.128c0 .883.262 1.537.883 2.126l6.445 6.445c2.192 2.224 2.192 3.271 0 5.496l-6.445 6.412c-.621.622-.883 1.276-.883 2.16v9.127c0 3.108-.785 3.893-3.893 3.893H47.9c-.85 0-1.505.261-2.127.883l-6.444 6.445c-2.225 2.224-3.272 2.224-5.464 0l-6.445-6.445c-.621-.622-1.276-.883-2.159-.883h-9.127Zm16.979-8.833c.49 0 .883-.262 1.21-.655l17.143-26.597c.13-.262.294-.621.294-.883 0-.654-.621-1.178-1.21-1.178-.425 0-.818.262-1.112.687L33.047 48.78 24.05 38.212c-.327-.425-.687-.589-1.145-.589-.622 0-1.178.524-1.178 1.21 0 .36.164.688.393 1.015l9.749 11.384c.36.458.72.655 1.243.655Z"/></svg>
